X: 75
P: No. XXV.
M: 9/8
L: 1/8
K: D
V: 1
def def e3 | g2B Bcd cBA | dAF FAF B3 | AFD D2E FED |]
V: 2 clef=bass middle=d
z |\
d3 f3 geg | a3 A3 A3 | d3 f3 geg | f3 a3 d3 |
d2d' d2d' c'ba | b3 g3 a3 | f3 d3 geg | f3 A3 d3 |]

